icons/tailwind.svg

<svg width="16" height="16" viewBox="0 0 16 16" fill="none" xmlns="http://www.w3.org/2000/svg">
<path fill-rule="evenodd" clip-rule="evenodd" d="M8.00014 4C6.13331 4 4.96684 5.00007 4.49993 7.0002C5.20003 6.00013 6.01671 5.62518 6.94999 5.87505C7.48247 6.01758 7.86324 6.43156 8.28435 6.8899C8.97072 7.63625 9.76519 8.5 11.5001 8.5C13.3666 8.5 14.5334 7.49993 15 5.5001C14.3002 6.50016 13.4835 6.87511 12.5502 6.62495C12.0175 6.48242 11.6367 6.06844 11.2156 5.6104C10.5292 4.86345 9.73501 4 8.00014 4ZM4.49993 8.5C2.63337 8.5 1.46664 9.50007 1 11.5002C1.7001 10.5001 2.51678 10.1252 3.44979 10.375C3.98254 10.5176 4.36331 10.9316 4.78441 11.3899C5.47079 12.1363 6.26499 13 8.00014 13C9.86669 13 11.0334 12.0002 11.5001 10.0001C10.8 11.0002 9.98328 11.3751 9.05001 11.1252C8.51753 10.9824 8.13675 10.5684 7.71565 10.1104C7.02927 9.36404 6.23481 8.5 4.49993 8.5V8.5Z" fill="#06B6D4"/>
</svg>

<svg xmlns="http://www.w3.org/2000/svg" width="16" height="16" fill="none"><path fill="#06B6D4" fill-rule="evenodd" d="M8 4C6.133 4 4.967 5 4.5 7c.7-1 1.517-1.375 2.45-1.125.532.143.913.557 1.334 1.015.687.746 1.481 1.61 3.216 1.61 1.867 0 3.033-1 3.5-3-.7 1-1.517 1.375-2.45 1.125-.533-.143-.913-.557-1.334-1.015C10.529 4.863 9.735 4 8 4ZM4.5 8.5c-1.867 0-3.033 1-3.5 3 .7-1 1.517-1.375 2.45-1.125.533.143.913.557 1.334 1.015C5.471 12.136 6.265 13 8 13c1.867 0 3.033-1 3.5-3-.7 1-1.517 1.375-2.45 1.125-.532-.143-.913-.557-1.334-1.015C7.029 9.364 6.235 8.5 4.5 8.5Z" clip-rule="evenodd"/></svg>
